src/assets/icons/vscode.svg

<svg xmlns="http://www.w3.org/2000/svg" width="256" height="256" fill="none" viewBox="0 0 256 256"><rect width="256" height="256" fill="#242938" rx="60"/><path fill="#2489CA" d="M33.7158 100.208C33.7158 100.208 28.9814 96.795 34.6627 92.2381L47.8994 80.402C47.8994 80.402 51.6869 76.4172 55.6915 79.8891L177.84 172.368V216.714C177.84 216.714 177.781 223.678 168.844 222.908L33.7158 100.208Z"/><path fill="#1070B3" d="M65.1997 128.792L33.7157 157.415C33.7157 157.415 30.4805 159.822 33.7157 164.123L48.3333 177.418C48.3333 177.418 51.8052 181.147 56.9341 176.905L90.3119 151.596L65.1997 128.792Z"/><path fill="#0877B9" d="M120.474 129.029L178.215 84.9391L177.84 40.83C177.84 40.83 175.374 31.2033 167.148 36.2139L90.312 106.145L120.474 129.029Z"/><path fill="#3C99D4" d="M168.844 222.968C172.198 226.4 176.262 225.276 176.262 225.276L221.259 203.103C227.019 199.177 226.21 194.305 226.21 194.305V61.8982C226.21 56.0788 220.252 54.0667 220.252 54.0667L181.253 35.267C172.731 30 167.148 36.2139 167.148 36.2139C167.148 36.2139 174.328 31.0455 177.84 40.83V215.905C177.84 217.109 177.583 218.292 177.071 219.358C176.045 221.429 173.816 223.362 168.47 222.553L168.844 222.968Z"/></svg>

<svg xmlns="http://www.w3.org/2000/svg" width="256" height="256" fill="none"><rect width="256" height="256" fill="#242938" rx="60"/><path fill="#2489CA" d="M33.716 100.208s-4.735-3.413.947-7.97l13.236-11.836s3.788-3.985 7.792-.513l122.149 92.479v44.346s-.059 6.964-8.996 6.194l-135.128-122.7z"/><path fill="#1070B3" d="m65.2 128.792-31.484 28.623s-3.236 2.407 0 6.708l14.617 13.295s3.472 3.729 8.601-.513l33.378-25.309L65.2 128.792z"/><path fill="#0877B9" d="m120.474 129.029 57.741-44.09-.375-44.109s-2.466-9.627-10.692-4.616l-76.836 69.931 30.162 22.884z"/><path fill="#3C99D4" d="M168.844 222.968c3.354 3.432 7.418 2.308 7.418 2.308l44.997-22.173c5.76-3.926 4.951-8.798 4.951-8.798V61.898c0-5.82-5.958-7.831-5.958-7.831l-38.999-18.8c-8.522-5.267-14.105.947-14.105.947s7.18-5.168 10.692 4.616v175.075a7.974 7.974 0 0 1-.769 3.453c-1.026 2.071-3.255 4.004-8.601 3.195l.374.415z"/></svg>
